svg/fluentui-system-icons/ic_fluent_document_table_checkmark_24_filled.svg

<svg width="24" height="24" viewBox="0 0 24 24" fill="none" xmlns="http://www.w3.org/2000/svg">
<path d="M15.5 17.25V16H12.8261C12.9398 16.4815 13 16.9837 13 17.5H15.25C15.3881 17.5 15.5 17.3881 15.5 17.25ZM15.5 14.5H12.2678C12.0528 14.0876 11.7949 13.7011 11.5 13.3464V13H15.25C15.3881 13 15.5 13.1119 15.5 13.25V14.5ZM6.5 11C7.38759 11 8.23363 11.1779 9.0044 11.5H15.25C16.2165 11.5 17 12.2835 17 13.25V17.25C17 18.2165 16.2165 19 15.25 19H12.8261C12.555 20.1474 11.9799 21.1773 11.1904 22H18C19.1046 22 20 21.1046 20 20V10H14C12.8954 10 12 9.10457 12 8V2H6C4.89543 2 4 2.89543 4 4V11.4982C4.76959 11.1772 5.6141 11 6.5 11ZM13.5 8V2.5L19.5 8.5H14C13.7239 8.5 13.5 8.27614 13.5 8ZM12 17.5C12 20.5376 9.53757 23 6.5 23C3.46243 23 1 20.5376 1 17.5C1 14.4624 3.46243 12 6.5 12C9.53757 12 12 14.4624 12 17.5ZM9.85355 15.1464C9.65829 14.9512 9.34171 14.9512 9.14645 15.1464L5.5 18.7929L3.85355 17.1464C3.65829 16.9512 3.34171 16.9512 3.14645 17.1464C2.95118 17.3417 2.95118 17.6583 3.14645 17.8536L5.14645 19.8536C5.34171 20.0488 5.65829 20.0488 5.85355 19.8536L9.85355 15.8536C10.0488 15.6583 10.0488 15.3417 9.85355 15.1464Z" fill="#212121"/>
</svg>

<svg xmlns="http://www.w3.org/2000/svg" width="24" height="24"><path d="M15.5 17.25V16h-2.674c.114.482.174.984.174 1.5h2.25a.25.25 0 0 0 .25-.25Zm0-2.75h-3.232a6.518 6.518 0 0 0-.768-1.154V13h3.75a.25.25 0 0 1 .25.25v1.25Zm-9-3.5a6.48 6.48 0 0 1 2.504.5h6.246c.966 0 1.75.784 1.75 1.75v4A1.75 1.75 0 0 1 15.25 19h-2.424a6.488 6.488 0 0 1-1.636 3H18a2 2 0 0 0 2-2V10h-6a2 2 0 0 1-2-2V2H6a2 2 0 0 0-2 2v7.498A6.479 6.479 0 0 1 6.5 11Zm7-3V2.5l6 6H14a.5.5 0 0 1-.5-.5ZM12 17.5a5.5 5.5 0 1 1-11 0 5.5 5.5 0 0 1 11 0Zm-2.146-2.354a.5.5 0 0 0-.708 0L5.5 18.793l-1.646-1.647a.5.5 0 0 0-.708.708l2 2a.5.5 0 0 0 .708 0l4-4a.5.5 0 0 0 0-.708Z"/></svg>
